styles/2/Numix/48/places/yellow-user-desktop.svg

<?xml version="1.0" encoding="UTF-8" standalone="no"?>
<svg
   xmlns:dc="http://purl.org/dc/elements/1.1/"
   xmlns:cc="http://creativecommons.org/ns#"
   xmlns:rdf="http://www.w3.org/1999/02/22-rdf-syntax-ns#"
   xmlns:svg="http://www.w3.org/2000/svg"
   xmlns="http://www.w3.org/2000/svg"
   xmlns:sodipodi="http://sodipodi.sourceforge.net/DTD/sodipodi-0.dtd"
   xmlns:inkscape="http://www.inkscape.org/namespaces/inkscape"
   width="48"
   viewBox="0 0 48 48"
   height="48"
   id="svg2"
   version="1.1"
   inkscape:version="0.91 r"
   sodipodi:docname="yellow-user-desktop.svg">
  <metadata
     id="metadata22">
    <rdf:RDF>
      <cc:Work
         rdf:about="">
        <dc:format>image/svg+xml</dc:format>
        <dc:type
           rdf:resource="http://purl.org/dc/dcmitype/StillImage" />
      </cc:Work>
    </rdf:RDF>
  </metadata>
  <defs
     id="defs20" />
  <sodipodi:namedview
     pagecolor="#ffffff"
     bordercolor="#666666"
     borderopacity="1"
     objecttolerance="10"
     gridtolerance="10"
     guidetolerance="10"
     inkscape:pageopacity="0"
     inkscape:pageshadow="2"
     inkscape:window-width="1280"
     inkscape:window-height="998"
     id="namedview18"
     showgrid="false"
     inkscape:zoom="9.8333333"
     inkscape:cx="5.8426664"
     inkscape:cy="26.701071"
     inkscape:window-x="0"
     inkscape:window-y="0"
     inkscape:window-maximized="1"
     inkscape:current-layer="svg2" />
  <path
     style="font-size:medium;font-style:normal;font-variant:normal;font-weight:normal;font-stretch:normal;text-indent:0;text-align:start;text-decoration:none;line-height:normal;letter-spacing:normal;word-spacing:normal;text-transform:none;direction:ltr;block-progression:tb;writing-mode:lr-tb;text-anchor:start;baseline-shift:baseline;color:#000000;fill:#ffca28;fill-opacity:1;fill-rule:nonzero;stroke:none;stroke-width:1;marker:none;visibility:visible;display:inline;overflow:visible;enable-background:accumulate;font-family:Sans;-inkscape-font-specification:Sans"
     d="m 6.000023,6.0000002 c -1,0 -2,1 -2,2 l 0,1.9999998 -1,0 c -1,0 -2.00556997,0.949207 -2,2 l 0,28 c 1.28e-4,1.120734 1.037763,1.9999 2.1875,2 l 41.625,0 c 1.1875,0 2.1875,-1 2.1875,-2 l 0,-25 c 0,-1 -1,-2 -2,-2 l -2,0 0,-4.9999998 c 0,-1 -1,-2 -2,-2 z"
     id="path3770"
     inkscape:connector-curvature="0"
     sodipodi:nodetypes="sscsccccccccsss" />
  <path
     inkscape:connector-curvature="0"
     style="font-size:medium;font-style:normal;font-variant:normal;font-weight:normal;font-stretch:normal;text-indent:0;text-align:start;text-decoration:none;line-height:normal;letter-spacing:normal;word-spacing:normal;text-transform:none;direction:ltr;block-progression:tb;writing-mode:lr-tb;text-anchor:start;baseline-shift:baseline;color:#000000;fill:#000000;fill-opacity:0.32156863;fill-rule:nonzero;stroke:none;stroke-width:1;marker:none;visibility:visible;display:inline;overflow:visible;enable-background:accumulate;font-family:Sans;-inkscape-font-specification:Sans"
     d="m 6.000023,6.0000002 c -1,0 -2,1 -2,2 l 0,1.9999998 -1,0 c -1,0 -2.00556997,0.949207 -2,2 l 0,28 c 1.28e-4,1.120734 1.037763,1.9999 2.1875,2 l 41.625,0 c 1.1875,0 2.1875,-1 2.1875,-2 l 0,-25 c 0,-1 -1,-2 -2,-2 l -2,0 0,-4.9999998 c 0,-1 -1,-2 -2,-2 l -35,0 z m -3,4.9999998 24,0 c 0.507314,0 1,0.494167 1,1 l 0,2 17,0 c 0.540858,0 1,0.471809 1,1 l 0,25 c 0,0.553755 -0.452115,1 -1,1 l -42,0 c -0.512726,0 -1,-0.446246 -1,-1 l 0,-28 c 0,-0.543318 0.479042,-1 1,-1 z"
     id="path3779" />
  <path
     style="opacity:1;fill:#000000;fill-opacity:0.32156864"
     d="M 18 20 C 16.892 20 16 20.892 16 22 L 16 31 C 16 32.108 16.892 33 18 33 L 22 33 L 20 35 C 19 36 19 36 20 36 L 28 36 C 29 36 29 36 28 35 L 26 33 L 30 33 C 31.108 33 32 32.108 32 31 L 32 22 C 32 20.892 31.108 20 30 20 L 18 20 z M 18 22 L 30 22 L 30 31 L 18 31 L 18 22 z M 20.84375 23 C 20.562434 23.046875 19.99997 23.25 20 24 L 20 29 C 20.00004 30 21 30 21 30 L 25 30 C 26 30 26 29 26 29 L 26 25 L 24 23 L 21 23 C 21 23 20.937522 22.984375 20.84375 23 z M 21 24 L 23 24 L 23 26 L 25 26 L 25 29 L 21 29 L 21 24 z "
     id="path8" />
</svg>

<svg xmlns="http://www.w3.org/2000/svg" viewBox="0 0 48 48">
 <path d="m 6 6 c -1 0 -2 1 -2 2 l 0 2 -1 0 c -1 0 -2.01 0.949 -2 2 l 0 28 c 0 1.121 1.038 2 2.188 2 l 41.625 0 c 1.188 0 2.188 -1 2.188 -2 l 0 -25 c 0 -1 -1 -2 -2 -2 l -2 0 0 -5 c 0 -1 -1 -2 -2 -2 z" style="visibility:visible;fill:#ffca28;fill-opacity:1;stroke:none;display:inline;color:#000;fill-rule:nonzero"/>
 <path d="m 6 6 c -1 0 -2 1 -2 2 l 0 2 -1 0 c -1 0 -2.01 0.949 -2 2 l 0 28 c 0 1.121 1.038 2 2.188 2 l 41.625 0 c 1.188 0 2.188 -1 2.188 -2 l 0 -25 c 0 -1 -1 -2 -2 -2 l -2 0 0 -5 c 0 -1 -1 -2 -2 -2 l -35 0 z m -3 5 24 0 c 0.507 0 1 0.494 1 1 l 0 2 17 0 c 0.541 0 1 0.472 1 1 l 0 25 c 0 0.554 -0.452 1 -1 1 l -42 0 c -0.513 0 -1 -0.446 -1 -1 l 0 -28 c 0 -0.543 0.479 -1 1 -1 z" style="visibility:visible;fill:#000;fill-opacity:0.322;stroke:none;display:inline;color:#000;fill-rule:nonzero"/>
 <path d="m 18 20 c -1.108 0 -2 0.892 -2 2 l 0 9 c 0 1.108 0.892 2 2 2 l 4 0 l -2 2 c -1 1 -1 1 0 1 l 8 0 c 1 0 1 0 0 -1 l -2 -2 l 4 0 c 1.108 0 2 -0.892 2 -2 l 0 -9 c 0 -1.108 -0.892 -2 -2 -2 l -12 0 z m 0 2 l 12 0 l 0 9 l -12 0 l 0 -9 z m 2.844 1 c -0.281 0.047 -0.844 0.25 -0.844 1 l 0 5 c 0 1 1 1 1 1 l 4 0 c 1 0 1 -1 1 -1 l 0 -4 l -2 -2 l -3 0 c 0 0 -0.062 -0.016 -0.156 0 z m 0.156 1 l 2 0 l 0 2 l 2 0 l 0 3 l -4 0 l 0 -5 z" style="fill:#000;opacity:1;fill-opacity:0.322"/>
</svg>
